X:5
T:Gavotte du Cap
C:Transcription Bernard KERREST
M:C
L: 1/4
K:G
 D/G/ B/G/ F/G/ A | G/A/ c/B/ G G :||: B B B/d/ d | c/B/ A B/c/ B |
 |G B/G/ F/G/ A | G/A/ c/B/ G G :||
